X: 18540
T: I Have A House Of My Own With A Chimney Built On Top Of It
R: slip jig
M: 9/8
K: Adorian
|AGE EDE ~E3|AGE EDE GAB|AGE EDE ~E3|DED DEG AGE:|
BdB d2 B d2 d|edB edB dBA|BdB d2 B d2 d|AGA B2A GED|
BdB d2 B deg|edB edB dBd|edB dBA B3|AGA B2A GED|

